packages/core/src/svgs/tokens/branded/AMP.svg

<svg width="24" height="24" viewBox="0 0 24 24" fill="none" xmlns="http://www.w3.org/2000/svg">
<path d="M20.885 14.1431H3.07209C2.45785 14.1431 2.00073 14.7144 2.00073 15.3287C2.00073 15.943 2.56497 16.2858 3.17208 16.2858H4.50055C4.28628 16.9071 4.16486 17.6428 3.9863 18.1641L3.39348 19.8783L3.17921 20.5211C2.97209 21.1067 3.2792 21.7354 3.86488 21.9354C4.4434 22.1425 5.07907 21.8354 5.27906 21.2496L5.50047 20.6068L6.09328 18.8927L7.00036 16.2858H16.9996L17.9139 18.8927C18.1567 19.6069 18.371 20.1926 18.5067 20.6068L18.728 21.2496C18.8247 21.528 19.028 21.7567 19.2931 21.8854C19.5584 22.014 19.8637 22.0318 20.1422 21.9354C20.4207 21.8387 20.6494 21.6354 20.778 21.3702C20.9065 21.1051 20.9245 20.7996 20.8278 20.5211L20.6065 19.8783L20.0137 18.1641L19.3566 16.2858H20.885C21.4993 16.2858 21.9993 15.943 21.9993 15.3287C21.9993 14.7215 21.4993 14.1431 20.885 14.1431ZM3.11493 12.0003H20.885C21.4993 12.0003 21.9993 11.5003 21.9993 10.8862C21.9993 10.279 21.4993 9.85758 20.885 9.85758H17.0711C16.1425 7.15783 15.4069 4.82943 15.2783 4.42946C15.0656 3.7223 14.639 3.09848 14.057 2.64388C13.4611 2.20839 12.7378 1.98236 12 2.00108C11.2572 2.00108 10.5429 2.18676 9.94298 2.64388C9.36235 3.09821 8.93789 3.72241 8.72873 4.42946C8.58596 4.82943 7.81459 7.15783 6.87894 9.85758H3.11493C2.5007 9.85758 2.00073 10.279 2.00073 10.8862C2.00073 11.5003 2.5007 12.0003 3.11493 12.0003ZM10.8286 5.12941C10.9716 4.72944 11.1286 4.52945 11.2785 4.41518C11.4215 4.31519 11.6357 4.22233 12 4.22233C12.3715 4.22233 12.5856 4.31519 12.7214 4.41518C12.9373 4.60347 13.0916 4.85231 13.1642 5.12941C13.2927 5.50082 14.0355 7.48637 14.8569 9.85758H9.14304C9.96448 7.49352 10.7144 5.50082 10.8357 5.12941H10.8286Z" fill="#D62D79"/>
</svg>

<svg xmlns="http://www.w3.org/2000/svg" width="24" height="24" fill="none" viewBox="0 0 24 24">
    <path fill="#D62D79" d="M20.885 14.143H3.072c-.614 0-1.071.571-1.071 1.186 0 .614.564.957 1.171.957h1.329c-.215.621-.336 1.357-.515 1.878l-.593 1.714-.214.643a1.1 1.1 0 0 0 .686 1.414c.578.207 1.214-.1 1.414-.685l.221-.643.593-1.714L7 16.286h10l.914 2.607c.243.714.457 1.3.593 1.714l.221.643a1.113 1.113 0 0 0 2.05.12c.129-.265.146-.57.05-.849l-.221-.643-.593-1.714-.657-1.878h1.528c.614 0 1.114-.343 1.114-.957 0-.607-.5-1.186-1.114-1.186M3.115 12h17.77c.614 0 1.114-.5 1.114-1.114 0-.607-.5-1.028-1.114-1.028h-3.814c-.929-2.7-1.664-5.029-1.793-5.429a3.57 3.57 0 0 0-1.221-1.785A3.34 3.34 0 0 0 12 2c-.743 0-1.457.186-2.057.643a3.54 3.54 0 0 0-1.214 1.785c-.143.4-.914 2.729-1.85 5.429H3.115C2.5 9.858 2 10.279 2 10.886 2 11.5 2.5 12 3.115 12m7.714-6.87c.143-.4.3-.6.45-.715.143-.1.357-.193.721-.193.371 0 .586.093.721.193.216.188.37.437.443.714.129.372.872 2.357 1.693 4.729H9.143c.821-2.364 1.571-4.357 1.693-4.729z"/>
</svg>
